src/account-outlined.svg

<svg xmlns="http://www.w3.org/2000/svg" class="dibsvg-svg dibsvg-account-outlined" viewBox="0 0 500 500">
    <path d="M278.088764,500 C190.723711,500 100.959616,499.78903 11.3954418,499.367089 L0,499.367089 L0.799680128,487.552743 C1.19952019,480.801688 4.9980008,421.940928 14.3942423,399.78903 C15.9936026,395.780591 26.1895242,370.886076 51.9792083,361.181435 L130.747701,327.637131 L163.934426,312.236287 C164.534186,312.025316 179.128349,305.696203 183.126749,287.341772 C183.526589,284.599156 183.326669,280.801688 182.926829,279.746835 C181.127549,276.160338 181.127549,276.160338 176.729308,270.886076 L176.529388,270.675105 C175.129948,268.987342 143.942423,229.957806 136.745302,173.628692 C136.345462,170.886076 132.546981,144.092827 136.145542,112.447257 C141.143543,67.5105485 158.336665,34.3881857 186.12555,16.6666667 C187.32507,15.8227848 213.714514,0 251.09956,0 C272.890844,0 294.082367,5.48523207 314.07437,16.0337553 C321.271491,19.4092827 381.847261,51.0548523 365.253898,175.316456 C364.854058,179.324895 358.656537,228.691983 325.669732,270.675105 C324.870052,271.518987 324.070372,272.57384 323.070772,273.839662 C321.471411,275.738397 319.272291,278.059072 318.072771,280.168776 C317.872851,281.223629 317.473011,283.966245 318.472611,287.130802 L318.672531,287.763713 L318.872451,288.607595 C319.072371,289.029536 322.271092,304.219409 341.463415,313.080169 L384.446222,333.544304 L447.820872,360.337553 C449.220312,360.970464 487.005198,376.793249 495.001999,429.324895 L495.201919,430.379747 L500,499.578059 L488.604558,499.578059 C487.604958,499.367089 407.836865,500 278.088764,500 L278.088764,500 L278.088764,500 L278.088764,500 L278.088764,500 Z M22.7908836,476.793249 C108.556577,477.21519 194.322271,477.42616 277.888844,477.42616 C379.448221,477.42616 450.219912,477.004219 476.609356,477.004219 L473.610556,432.278481 C467.612955,393.459916 441.023591,381.64557 439.82407,381.223629 L375.64974,354.219409 L332.666933,333.755274 C305.677729,321.097046 299.080368,298.734177 297.880848,293.670886 C294.482207,282.278481 297.680928,272.78481 298.080768,271.729958 L298.480608,270.675105 C300.879648,265.400844 304.678129,261.392405 307.277089,258.227848 C307.876849,257.383966 308.676529,256.751055 309.076369,256.118143 C338.464614,218.776371 343.862455,172.995781 343.862455,172.362869 L343.862455,172.151899 C358.656537,61.6033755 307.477009,37.5527426 305.277889,36.4978903 L304.478209,36.0759494 C287.485006,27.0042194 269.492203,22.3628692 250.89964,22.3628692 C219.312275,22.3628692 197.121152,35.6540084 196.921232,35.8649789 C143.142743,70.2531646 157.736905,168.987342 157.736905,170.042194 L157.736905,170.464135 C163.734506,218.776371 190.723711,253.586498 192.522991,255.907173 C198.320672,262.658228 198.920432,263.50211 201.919232,269.831224 C205.517793,277.42616 204.518193,287.974684 204.118353,290.92827 L203.918433,291.772152 C197.920832,321.097046 174.930028,331.85654 171.731307,333.333333 L138.544582,348.523207 L59.1763295,382.489451 C41.1835266,389.240506 34.1863255,408.016878 34.1863255,408.227848 L33.7864854,409.07173 C28.3886445,421.308017 24.5901639,455.485232 22.7908836,476.793249 L22.7908836,476.793249 L22.7908836,476.793249 L22.7908836,476.793249 L22.7908836,476.793249 Z"/>
</svg>

<svg xmlns="http://www.w3.org/2000/svg" class="dibsvg-svg dibsvg-account-outlined" viewBox="0 0 500 500">
    <path d="M278.089 500c-87.365 0-177.13-.211-266.694-.633H0l.8-11.814c.4-6.751 4.198-65.612 13.594-87.764 1.6-4.008 11.796-28.903 37.585-38.608l78.769-33.544 33.186-15.4c.6-.212 15.194-6.54 19.193-24.895.4-2.743.2-6.54-.2-7.595-1.8-3.587-1.8-3.587-6.198-8.86l-.2-.212c-1.4-1.688-32.587-40.717-39.784-97.046-.4-2.743-4.198-29.536-.6-61.182 4.999-44.936 22.192-78.059 49.98-95.78C187.326 15.823 213.716 0 251.1 0c21.79 0 42.982 5.485 62.974 16.034 7.197 3.375 67.773 35.02 51.18 159.282-.4 4.009-6.597 53.376-39.584 95.36-.8.843-1.6 1.898-2.6 3.164-1.599 1.898-3.798 4.22-4.997 6.329-.2 1.055-.6 3.797.4 6.962l.2.633.2.844c.2.422 3.398 15.611 22.59 24.472l42.983 20.464 63.375 26.794c1.4.632 39.184 16.455 47.181 68.987l.2 1.055L500 499.578h-11.395c-1-.21-80.768.422-210.516.422zM22.79 476.793c85.766.422 171.531.633 255.098.633 101.56 0 172.33-.422 198.72-.422l-2.998-44.726c-5.998-38.818-32.587-50.632-33.787-51.054l-64.174-27.005-42.983-20.464c-26.99-12.658-33.587-35.02-34.786-40.084-3.399-11.393-.2-20.886.2-21.941l.4-1.055c2.399-5.274 6.197-9.283 8.796-12.447.6-.844 1.4-1.477 1.8-2.11 29.388-37.342 34.785-83.122 34.785-83.755v-.211c14.795-110.549-36.385-134.6-38.584-135.654l-.8-.422c-16.993-9.072-34.986-13.713-53.578-13.713-31.588 0-53.779 13.291-53.979 13.502-53.778 34.388-39.184 133.122-39.184 134.177v.422c5.998 48.312 32.987 83.122 34.786 85.443 5.798 6.751 6.397 7.595 9.396 13.924 3.599 7.595 2.6 18.144 2.2 21.097l-.2.844c-5.998 29.325-28.989 40.085-32.188 41.561l-33.186 15.19-79.369 33.966c-17.992 6.752-24.99 25.528-24.99 25.739l-.4.844c-5.397 12.236-9.196 46.413-10.995 67.721z"/>
</svg>
